X: 27071
T: Miss Johnson
R: reel
M: 4/4
K: Gmajor
dc|BcdB G2 GF|GBAF G2 dc|BcdB G2 AG|FGAB cAdc|
BcdB G2 GF|GBAF GABc|dBcA BGAG|FGAB cA||
dc|Bcde dBGB|dg g2 bg g2|Bcde dcBc|Aaaf gedc|
Bcde dBGB|defa g2 fg|afdg ecAG|FGAB cA||

